X: 225
T: Miss Augusta Charteirs Strathspey
C: William Shepherd (17??-1812)
R: strathspey
B: William Shepherd "2nd Collection" 1800 p.22 #5
F: http://imslp.org/wiki/File:PMLP73094-Shepherd_Collections_HMT.pdf
Z: 2012 John Chambers <jc:trillian.mit.edu>
N: Long beams broken to improve readability
M: C
L: 1/16
K: Cm
ED |\
C3G E3c G3c e3c | B3d G3B F3B, .D.E.F.D |\
C3G E3c G3c e3c | B3F (GF).E.D {D}C4 C2 ||
ED |\
C3G E3c G3c e3c | B3d G3B F3B, .D.E.F.D |\
C3E D3F E3G c3e | B3F (GF).E.D E2C2C2 |]
f2 |\
g3c eg3 c3g e2c2 | B3f db3 Bf3 d2B2 |\
g3c eg3 c3g e3c | G3B GFED E2C2 C2 ||
ef |\
g3c eg3 cg3 e3c | B3f db3 B2f2 (ed).c.B |\
eg3 df3 cd3 Bc3 | F3B (GF).E.D E2C2C2 |]
